icon-themes/breeze_svg/cmd/32/connectorcurvearrows.svg

<svg viewBox="0 0 32 32" xmlns="http://www.w3.org/2000/svg"><path d="m9 4-5 3 5 3v-2h13.5a3.5 3.5 0 0 1 3.5 3.5 3.5 3.5 0 0 1 -3.5 3.5h-13-.5v.027344a5.5 5.5 0 0 0 -5 5.472656 5.5 5.5 0 0 0 5 5.474609v.025391h.5 13.5v2l5-3-5-3v2h-13.5a3.5 3.5 0 0 1 -3.5-3.5 3.5 3.5 0 0 1 3.5-3.5h13.5v-.025391a5.5 5.5 0 0 0 5-5.474609 5.5 5.5 0 0 0 -5-5.4726562v-.0273438h-14z" fill="#4d4d4d"/></svg>

<svg xmlns="http://www.w3.org/2000/svg" viewBox="0 0 32 32">
 <path 
     style="fill:#4d4d4d" 
     d="M 9 4 L 4 7 L 9 10 L 9 8 L 22.5 8 A 3.5 3.5 0 0 1 26 11.5 A 3.5 3.5 0 0 1 22.5 15 L 9.5 15 L 9 15 L 9 15.027344 A 5.5 5.5 0 0 0 4 20.5 A 5.5 5.5 0 0 0 9 25.974609 L 9 26 L 9.5 26 L 23 26 L 23 28 L 28 25 L 23 22 L 23 24 L 9.5 24 A 3.5 3.5 0 0 1 6 20.5 A 3.5 3.5 0 0 1 9.5 17 L 23 17 L 23 16.974609 A 5.5 5.5 0 0 0 28 11.5 A 5.5 5.5 0 0 0 23 6.0273438 L 23 6 L 9 6 L 9 4 z "
     />
</svg>
